X:1
T: Ewan Telford's Strathspey
C:Muriel A Johnstone
R:Strathspey
%Q: 128
K:A
M:4/4
L:1/16
|:e4|d3c B3A FA3 E3C|DF3 B3c d6f2|e3d c3B Ac3 F3A|BA3 c3A B6e2|
d3c B3A FA3 E3C|DF3 B3c d6d2|c3B AG3 A4 B2c2|df3 B3c d4 c3B|
A4 ((3cBA) ce3 e3a|ga3 e3a f3a ec3|B4 ((3dcB) df3 f3b|^ab3 B3c d4 c3B|
A4 ((3cBA) ce3 e3a|ga3 e3a f3a ec3|d4 B3d ce3 a3c|BA3 c3B A4:|
